Suru++-Ubuntu/apps/scalable/parole.svg

<svg width="256" height="256" version="1.1" viewBox="0 0 67.73 67.73" xmlns="http://www.w3.org/2000/svg" xmlns:xlink="http://www.w3.org/1999/xlink">
 <defs>
  <clipPath id="clipPath1082-3-5">
   <path d="M 361.9375,-212 C 507.2348,-212 528,-191.28677 528,-46.125 V 70.125 C 528,215.28618 507.2348,236 361.9375,236 H 214.0625 C 68.7652,236 48,215.28618 48,70.125 V -46.125 C 48,-191.28677 68.7652,-212 214.0625,-212 Z" style="fill:#8c59d9"/>
  </clipPath>
  <filter id="filter4569-2" x="-.01" y="-.01" width="1.023" height="1.025" style="color-interpolation-filters:sRGB">
   <feGaussianBlur stdDeviation="1.16"/>
  </filter>
  <filter id="filter913" x="-.02" y="-.03" width="1.046" height="1.05" style="color-interpolation-filters:sRGB">
   <feGaussianBlur stdDeviation="2.32"/>
  </filter>
  <linearGradient id="linearGradient906" x1="296" x2="296" y1="-212" y2="236" gradientUnits="userSpaceOnUse">
   <stop style="stop-color:#ffffff" offset="0"/>
   <stop style="stop-color:#ffffff;stop-opacity:.09803922" offset=".125"/>
   <stop style="stop-color:#000000;stop-opacity:.09803922" offset=".925"/>
   <stop style="stop-color:#000000;stop-opacity:.49803922" offset="1"/>
  </linearGradient>
  <linearGradient id="linearGradient3167" x1="32.455" x2="32.455" y1="32.135" y2="44.699" gradientTransform="matrix(7.0512824,0,0,5.2200956,-36.730824,11.567055)" gradientUnits="userSpaceOnUse">
   <stop style="stop-color:#f4f4f4" offset="0"/>
   <stop style="stop-color:#dbdbdb" offset="1"/>
  </linearGradient>
  <linearGradient id="linearGradient4470" x1="256" x2="256" y1="375" y2="135.281" gradientTransform="matrix(.13485389 0 0 .13485389 -1.1140899 220.1818)" gradientUnits="userSpaceOnUse">
   <stop style="stop-color:#f5f5f5" offset="0"/>
   <stop style="stop-color:#cccccc" offset="1"/>
  </linearGradient>
  <filter id="filter4460" x="-.01" y="-.01" width="1.026" height="1.023" style="color-interpolation-filters:sRGB">
   <feGaussianBlur stdDeviation="1.133"/>
  </filter>
  <linearGradient id="linearGradient4413" x1="256" x2="256" y1="138" y2="375" gradientUnits="userSpaceOnUse">
   <stop style="stop-color:#000000;stop-opacity:0" offset="0"/>
   <stop style="stop-color:#000000" offset=".505"/>
   <stop style="stop-color:#000000;stop-opacity:0" offset="1"/>
  </linearGradient>
 </defs>
 <g transform="translate(0,-229.26666)">
  <path transform="matrix(.26970778 0 0 .26970778 -7.1289177 220.56049)" d="m188.96876 45.999995c72.64865 0 83.03125 10.356615 83.03125 82.937505v58.125c0 72.58059-10.3826 82.9375-83.03125 82.9375h-73.9375c-72.648654 0-83.031254-10.35691-83.031254-82.9375v-58.125c0-72.58089 10.3826-82.937505 83.031254-82.937505z" style="filter:url(#filter913);opacity:.2"/>
  <path transform="matrix(.26970778 0 0 .26970778 -7.1289177 220.56049)" d="m188.96876 43.999995c72.64865 0 83.03125 10.356615 83.03125 82.937505v58.125c0 72.58059-10.3826 82.9375-83.03125 82.9375h-73.9375c-72.648654 0-83.031254-10.35691-83.031254-82.9375v-58.125c0-72.58089 10.3826-82.937505 83.031254-82.937505z" style="filter:url(#filter4569-2);opacity:.1"/>
  <path d="m23.895905 232.42763c-9.797337 0-15.39413 0.69699-18.544517 3.84334-3.150381 3.14634-3.849657 8.73736-3.849657 18.52555v15.67677c0 9.78815 0.699276 15.3792 3.849657 18.52555 3.150387 3.14636 8.7471787 3.84333 18.544517 3.84333h19.94152c9.797339 0 15.394134-0.69697 18.544517-3.84333 3.150384-3.14635 3.849659-8.7374 3.849659-18.52555v-15.67677c0-9.78819-0.699275-15.37921-3.849659-18.52555-3.150383-3.14635-8.74718-3.84334-18.544517-3.84334z" style="fill:#4d4d4d"/>
  <path d="m1.5017313 269.93387v0.53942c0 9.78815 0.699276 15.3792 3.849657 18.52555 3.150387 3.14636 8.7471787 3.84333 18.544517 3.84333h19.94152c9.797339 0 15.394134-0.69697 18.544517-3.84333 3.150384-3.14635 3.849659-8.7374 3.849659-18.52555v-0.53942c0 9.78815-0.699275 15.3792-3.849659 18.52555-3.150383 3.14636-8.747178 3.84334-18.544517 3.84334h-19.94152c-9.797338 0-15.39413-0.69698-18.544517-3.84334-3.150381-3.14635-3.849657-8.7374-3.849657-18.52555z" style="fill:#131313;opacity:.2"/>
  <path d="m1.5875 275.56877h64.558333" style="fill:none;opacity:.14299999;stroke-width:1.0806166;stroke:#000000"/>
  <path transform="matrix(.26458333 0 0 .26458333 0 229.26666)" d="m6.1640625 176c0.0626747 1.4297 0.0308042 3.24934 0.1113281 4.61719 0.2169106 3.68462 0.5010732 7.1468 0.8652344 10.40039 0.3641612 3.25358 0.8084276 6.29807 1.3457031 9.14648 0.5372756 2.84842 1.1660903 5.50158 1.9023439 7.97071 0.736253 2.46912 1.57992 4.75344 2.541016 6.86914 0.961095 2.11569 2.040152 4.06146 3.251953 5.84961 1.2118 1.78814 2.556553 3.41978 4.044921 4.90625 1.488372 1.48646 3.119891 2.827 4.910157 4.03711 1.790266 1.2101 3.739363 2.29038 5.857422 3.25 2.118058 0.95961 4.405205 1.80015 6.876953 2.53515s5.12718 1.36414 7.978515 1.90039c2.851336 0.53626 5.899429 0.97842 9.15625 1.3418s6.721953 0.6469 10.410157 0.86328c7.376408 0.43277 15.64111 0.59766 24.898437 0.59766h75.371097c9.25733 0 17.52202-0.16489 24.89843-0.59766 3.68821-0.21638 7.15334-0.4999 10.41016-0.86328s6.30491-0.80554 9.15625-1.3418c2.85134-0.53625 5.50677-1.16539 7.97852-1.90039 2.47174-0.735 4.75889-1.57554 6.87695-2.53515 2.11806-0.95962 4.06716-2.0399 5.85742-3.25 1.79027-1.21011 3.42179-2.55065 4.91016-4.03711 1.48837-1.48647 2.83312-3.11811 4.04492-4.90625 1.2118-1.78815 2.29086-3.73392 3.25195-5.84961 0.9611-2.1157 1.80476-4.40002 2.54102-6.86914 0.73625-2.46913 1.36507-5.12229 1.90234-7.97071 0.53728-2.84841 0.98154-5.8929 1.34571-9.14648 0.36416-3.25359 0.64832-6.71577 0.86523-10.40039 0.08052-1.36785 0.04865-3.18749 0.11133-4.61719h-243.67188z" style="fill:url(#linearGradient3167)"/>
  <g transform="matrix(.95238095 0 0 .95238095 1.8646826 17.133485)">
   <rect x="5.82" y="275.67" width="55.563" height="6.237" style="fill:#7d7d7d"/>
   <rect x="5.82" y="275.67" width="20.978" height="6.237" style="fill:#e20000"/>
   <rect x="5.82" y="275.67" width="55.563" height=".567" style="opacity:.3"/>
   <rect x="5.82" y="281.9" width="55.563" height=".567" style="fill:#ffffff;opacity:.5"/>
   <rect x="26.8" y="275.67" width="9.071" height="6.237" style="fill:#ffffff;opacity:.2"/>
  </g>
  <path transform="matrix(.13485389 0 0 .13485389 -4.9712557 261.01666)" d="M 361.9375,-212 C 507.2348,-212 528,-191.28677 528,-46.125 V 70.125 C 528,215.28618 507.2348,236 361.9375,236 H 214.0625 C 68.7652,236 48,215.28618 48,70.125 V -46.125 C 48,-191.28677 68.7652,-212 214.0625,-212 Z" clip-path="url(#clipPath1082-3-5)" style="fill:none;opacity:.4;stroke-linecap:round;stroke-linejoin:round;stroke-width:8;stroke:url(#linearGradient906)"/>
  <g transform="matrix(.89965909 0 0 .89965909 6.16831 24.615425)">
   <path transform="matrix(.13485389 0 0 .13485389 -1.1140899 220.18181)" d="m155.41127 137.99999v239.99999s121.72498-49.19762 221.18971-120.07579c0-0.0217-0.0115-0.0398-0.0253-0.0645-0.0115-0.0263-0.0264-0.0523-0.0448-0.0786-0.0191-0.026-0.0374-0.0533-0.0504-0.0786-0.0147-0.0262-0.0253-0.0526-0.0253-0.0758-104.91599-73.13856-221.04372-119.62658-221.04372-119.62658z" style="fill:url(#linearGradient4413);filter:url(#filter4415);opacity:.4"/>
   <path transform="matrix(.13485389 0 0 .13485389 -1.1140899 220.18181)" d="m155.41127 137.99999v239.99999s121.72498-49.19762 221.18971-120.07579c0-0.0217-0.0115-0.0398-0.0253-0.0645-0.0115-0.0263-0.0264-0.0523-0.0448-0.0786-0.0191-0.026-0.0374-0.0533-0.0504-0.0786-0.0147-0.0262-0.0253-0.0526-0.0253-0.0758-104.91599-73.13856-221.04372-119.62658-221.04372-119.62658z" style="filter:url(#filter4460);opacity:.1"/>
   <path d="m19.843724 238.52193v32.36494s16.415083-6.63449 29.828289-16.19269c0-3e-3 -0.0016-5e-3 -0.0034-9e-3 -0.0016-4e-3 -0.0036-7e-3 -6e-3 -0.0106-0.0027-4e-3 -0.0051-7e-3 -0.0068-0.0106-0.0019-4e-3 -0.0034-7e-3 -0.0034-0.0102-14.14842-9.86273-29.808692-16.13182-29.808692-16.13182z" style="fill:url(#linearGradient4470)"/>
   <path d="m19.843647 238.52193v0.26971s15.553918 6.22466 29.653556 16.02549c0.05815-0.0413 0.116816-0.0816 0.17489-0.123 0-3e-3 -0.0016-5e-3 -0.0034-9e-3 -0.0016-4e-3 -0.0036-7e-3 -0.0061-0.0106-0.0027-4e-3 -0.0051-7e-3 -0.0069-0.0106-0.0019-4e-3 -0.0034-7e-3 -0.0034-0.0103-14.148242-9.86255-29.808602-16.1317-29.808602-16.1317z" style="fill:#ffffff"/>
  </g>
 </g>
</svg>

<svg xmlns="http://www.w3.org/2000/svg" xmlns:xlink="http://www.w3.org/1999/xlink" width="256" height="256" version="1.1" viewBox="0 0 67.73 67.73">
 <defs>
  <linearGradient id="linearGradient1013">
   <stop offset="0" style="stop-color:#ffffff"/>
   <stop style="stop-color:#ffffff;stop-opacity:0.09803922" offset=".125"/>
   <stop style="stop-color:#000000;stop-opacity:0.09803922" offset=".925"/>
   <stop offset="1" style="stop-color:#000000;stop-opacity:0.49803922"/>
  </linearGradient>
  <clipPath id="clipPath1082-3-5" clipPathUnits="userSpaceOnUse">
   <path d="M 361.9375,-212 C 507.2348,-212 528,-191.28677 528,-46.125 V 70.125 C 528,215.28618 507.2348,236 361.9375,236 H 214.0625 C 68.7652,236 48,215.28618 48,70.125 V -46.125 C 48,-191.28677 68.7652,-212 214.0625,-212 Z" style="fill:#8c59d9"/>
  </clipPath>
  <filter style="color-interpolation-filters:sRGB" id="filter4569-2" width="1.023" height="1.025" x="-.01" y="-.01">
   <feGaussianBlur stdDeviation="1.16"/>
  </filter>
  <filter style="color-interpolation-filters:sRGB" id="filter913" width="1.046" height="1.05" x="-.02" y="-.03">
   <feGaussianBlur stdDeviation="2.32"/>
  </filter>
  <linearGradient id="linearGradient906" x1="296" x2="296" y1="-212" y2="236" gradientUnits="userSpaceOnUse" xlink:href="#linearGradient1013"/>
  <linearGradient id="linearGradient3167" x1="32.455" x2="32.455" y1="32.135" y2="44.699" gradientTransform="matrix(7.0512824,0,0,5.2200956,-36.730824,11.567055)" gradientUnits="userSpaceOnUse" xlink:href="#linearGradient3600"/>
  <linearGradient id="linearGradient3600">
   <stop offset="0" style="stop-color:#f4f4f4"/>
   <stop offset="1" style="stop-color:#dbdbdb"/>
  </linearGradient>
  <linearGradient id="linearGradient4470" x1="256" x2="256" y1="375" y2="135.281" gradientTransform="matrix(0.13485389,0,0,0.13485389,-1.1140899,220.1818)" gradientUnits="userSpaceOnUse" xlink:href="#linearGradient4464"/>
  <linearGradient id="linearGradient4464">
   <stop offset="0" style="stop-color:#f5f5f5"/>
   <stop offset="1" style="stop-color:#cccccc"/>
  </linearGradient>
  <filter style="color-interpolation-filters:sRGB" id="filter4460" width="1.026" height="1.023" x="-.01" y="-.01">
   <feGaussianBlur stdDeviation="1.133"/>
  </filter>
  <linearGradient id="linearGradient4413" x1="256" x2="256" y1="138" y2="375" gradientUnits="userSpaceOnUse" xlink:href="#linearGradient4295"/>
  <linearGradient id="linearGradient4295">
   <stop style="stop-color:#000000;stop-opacity:0" offset="0"/>
   <stop offset=".505" style="stop-color:#000000"/>
   <stop style="stop-color:#000000;stop-opacity:0" offset="1"/>
  </linearGradient>
 </defs>
 <g transform="translate(0,-229.26666)">
  <path style="opacity:0.2;filter:url(#filter913)" d="m 188.96876,45.999995 c 72.64865,0 83.03125,10.356615 83.03125,82.937505 v 58.125 c 0,72.58059 -10.3826,82.9375 -83.03125,82.9375 h -73.9375 C 42.382606,270 32.000006,259.64309 32.000006,187.0625 v -58.125 c 0,-72.58089 10.3826,-82.937505 83.031254,-82.937505 z" transform="matrix(0.26970778,0,0,0.26970778,-7.1289177,220.56049)"/>
  <path d="m 188.96876,43.999995 c 72.64865,0 83.03125,10.356615 83.03125,82.937505 v 58.125 c 0,72.58059 -10.3826,82.9375 -83.03125,82.9375 h -73.9375 C 42.382606,268 32.000006,257.64309 32.000006,185.0625 v -58.125 c 0,-72.58089 10.3826,-82.937505 83.031254,-82.937505 z" transform="matrix(0.26970778,0,0,0.26970778,-7.1289177,220.56049)" style="opacity:0.1;filter:url(#filter4569-2)"/>
  <path style="fill:#4d4d4d" d="m 23.895905,232.42763 c -9.797337,0 -15.3941297,0.69699 -18.5445167,3.84334 -3.150381,3.14634 -3.849657,8.73736 -3.849657,18.52555 v 15.67677 c 0,9.78815 0.699276,15.3792 3.849657,18.52555 3.150387,3.14636 8.7471787,3.84333 18.5445167,3.84333 h 19.94152 c 9.797339,0 15.394134,-0.69697 18.544517,-3.84333 3.150384,-3.14635 3.849659,-8.7374 3.849659,-18.52555 v -15.67677 c 0,-9.78819 -0.699275,-15.37921 -3.849659,-18.52555 -3.150383,-3.14635 -8.74718,-3.84334 -18.544517,-3.84334 z"/>
  <path style="opacity:0.2;fill:#131313" d="m 1.5017313,269.93387 v 0.53942 c 0,9.78815 0.699276,15.3792 3.849657,18.52555 3.150387,3.14636 8.7471787,3.84333 18.5445167,3.84333 h 19.94152 c 9.797339,0 15.394134,-0.69697 18.544517,-3.84333 3.150384,-3.14635 3.849659,-8.7374 3.849659,-18.52555 v -0.53942 c 0,9.78815 -0.699275,15.3792 -3.849659,18.52555 -3.150383,3.14636 -8.747178,3.84334 -18.544517,3.84334 h -19.94152 c -9.797338,0 -15.3941297,-0.69698 -18.5445167,-3.84334 -3.150381,-3.14635 -3.849657,-8.7374 -3.849657,-18.52555 z"/>
  <path style="opacity:0.14299999;fill:none;stroke:#000000;stroke-width:1.08061659" d="m 1.5875,275.56877 h 64.558333 v 0"/>
  <path style="fill:url(#linearGradient3167)" d="M 6.1640625 176 C 6.2267372 177.4297 6.1948667 179.24934 6.2753906 180.61719 C 6.4923012 184.30181 6.7764638 187.76399 7.140625 191.01758 C 7.5047862 194.27116 7.9490526 197.31565 8.4863281 200.16406 C 9.0236037 203.01248 9.6524184 205.66564 10.388672 208.13477 C 11.124925 210.60389 11.968592 212.88821 12.929688 215.00391 C 13.890783 217.1196 14.96984 219.06537 16.181641 220.85352 C 17.393441 222.64166 18.738194 224.2733 20.226562 225.75977 C 21.714934 227.24623 23.346453 228.58677 25.136719 229.79688 C 26.926985 231.00698 28.876082 232.08726 30.994141 233.04688 C 33.112199 234.00649 35.399346 234.84703 37.871094 235.58203 C 40.342842 236.31703 42.998274 236.94617 45.849609 237.48242 C 48.700945 238.01868 51.749038 238.46084 55.005859 238.82422 C 58.26268 239.1876 61.727812 239.47112 65.416016 239.6875 C 72.792424 240.12027 81.057126 240.28516 90.314453 240.28516 L 165.68555 240.28516 C 174.94288 240.28516 183.20757 240.12027 190.58398 239.6875 C 194.27219 239.47112 197.73732 239.1876 200.99414 238.82422 C 204.25096 238.46084 207.29905 238.01868 210.15039 237.48242 C 213.00173 236.94617 215.65716 236.31703 218.12891 235.58203 C 220.60065 234.84703 222.8878 234.00649 225.00586 233.04688 C 227.12392 232.08726 229.07302 231.00698 230.86328 229.79688 C 232.65355 228.58677 234.28507 227.24623 235.77344 225.75977 C 237.26181 224.2733 238.60656 222.64166 239.81836 220.85352 C 241.03016 219.06537 242.10922 217.1196 243.07031 215.00391 C 244.03141 212.88821 244.87507 210.60389 245.61133 208.13477 C 246.34758 205.66564 246.9764 203.01248 247.51367 200.16406 C 248.05095 197.31565 248.49521 194.27116 248.85938 191.01758 C 249.22354 187.76399 249.5077 184.30181 249.72461 180.61719 C 249.80513 179.24934 249.77326 177.4297 249.83594 176 L 6.1640625 176 z" transform="matrix(0.26458333,0,0,0.26458333,0,229.26666)"/>
  <g transform="matrix(0.95238095,0,0,0.95238095,1.8646826,17.133485)">
   <rect style="fill:#7d7d7d" width="55.563" height="6.237" x="5.82" y="275.67"/>
   <rect width="20.978" height="6.237" x="5.82" y="275.67" style="fill:#e20000"/>
   <rect width="55.563" height=".567" x="5.82" y="275.67" style="opacity:0.3"/>
   <rect style="opacity:0.5;fill:#ffffff" width="55.563" height=".567" x="5.82" y="281.9"/>
   <rect style="opacity:0.2;fill:#ffffff" width="9.071" height="6.237" x="26.8" y="275.67"/>
  </g>
  <path d="M 361.9375,-212 C 507.2348,-212 528,-191.28677 528,-46.125 V 70.125 C 528,215.28618 507.2348,236 361.9375,236 H 214.0625 C 68.7652,236 48,215.28618 48,70.125 V -46.125 C 48,-191.28677 68.7652,-212 214.0625,-212 Z" clip-path="url(#clipPath1082-3-5)" transform="matrix(0.13485389,0,0,0.13485389,-4.9712557,261.01666)" style="opacity:0.4;fill:none;stroke:url(#linearGradient906);stroke-width:8;stroke-linecap:round;stroke-linejoin:round"/>
  <g transform="matrix(0.89965909,0,0,0.89965909,6.16831,24.615425)">
   <path style="opacity:0.4;fill:url(#linearGradient4413);filter:url(#filter4415)" d="m 155.41127,137.99999 v 239.99999 c 0,0 121.72498,-49.19762 221.18971,-120.07579 0,-0.0217 -0.0115,-0.0398 -0.0253,-0.0645 -0.0115,-0.0263 -0.0264,-0.0523 -0.0448,-0.0786 -0.0191,-0.026 -0.0374,-0.0533 -0.0504,-0.0786 -0.0147,-0.0262 -0.0253,-0.0526 -0.0253,-0.0758 C 271.53919,184.48813 155.41146,138.00011 155.41146,138.00011 Z" transform="matrix(0.13485389,0,0,0.13485389,-1.1140899,220.18181)"/>
   <path style="opacity:0.1;filter:url(#filter4460)" d="m 155.41127,137.99999 v 239.99999 c 0,0 121.72498,-49.19762 221.18971,-120.07579 0,-0.0217 -0.0115,-0.0398 -0.0253,-0.0645 -0.0115,-0.0263 -0.0264,-0.0523 -0.0448,-0.0786 -0.0191,-0.026 -0.0374,-0.0533 -0.0504,-0.0786 -0.0147,-0.0262 -0.0253,-0.0526 -0.0253,-0.0758 C 271.53919,184.48813 155.41146,138.00011 155.41146,138.00011 Z" transform="matrix(0.13485389,0,0,0.13485389,-1.1140899,220.18181)"/>
   <path d="m 19.843724,238.52193 v 32.36494 c 0,0 16.415083,-6.63449 29.828289,-16.19269 0,-0.003 -0.0016,-0.005 -0.0034,-0.009 -0.0016,-0.004 -0.0036,-0.007 -0.006,-0.0106 -0.0027,-0.004 -0.0051,-0.007 -0.0068,-0.0106 -0.0019,-0.004 -0.0034,-0.007 -0.0034,-0.0102 -14.14842,-9.86273 -29.808692,-16.13182 -29.808692,-16.13182 z" style="fill:url(#linearGradient4470)"/>
   <path d="m 19.843647,238.52193 v 0.26971 c 0,0 15.553918,6.22466 29.653556,16.02549 0.05815,-0.0413 0.116816,-0.0816 0.17489,-0.123 0,-0.003 -0.0016,-0.005 -0.0034,-0.009 -0.0016,-0.004 -0.0036,-0.007 -0.0061,-0.0106 -0.0027,-0.004 -0.0051,-0.007 -0.0069,-0.0106 -0.0019,-0.004 -0.0034,-0.007 -0.0034,-0.0103 -14.148242,-9.86255 -29.808602,-16.1317 -29.808602,-16.1317 z" style="fill:#ffffff"/>
  </g>
 </g>
</svg>
